X:1
T:Title
%%score ( 1 2 ) 3
L:1/8
Q:1/4=80
M:2/4
K:Ab
V:1 treble nm="Strings 1, Soprano"
V:2 treble 
V:3 bass nm="Strings 1, Bass"
V:1
 [CA]3 [DB] | [Ec][CE] [EA][EG] | [DG] [DF]3- | [DF]4 | [DG]3 [FA] | [DB][DA] [Ec]>[DB] | [CA]4- | %7
w: George~F.~Root *|||||||
 [CA]4 | [CA]3 [DB] | [Ec][CE] [EA][EG] | [DG] [DF]3- | [DF]4 | [DG]3 [FA] | [DB][DA] [Ec]>[DB] | %14
w: |||||||
 [CA]4- | [CA]4 | [Ec]3 [Ee] | [Fd][Ec] [DB][CA] | [DF] [FA]3- | [FA]4 | [=DB]3 [Dc] | %21
w: |||||||
 [=DB][DA] [DG]>[DF] | [DE]4- | [DE]4 | [CA]3 [DB] | [Ec][CE] [EA][EG] | [DG] [DF]3- | [DF]4 | %28
w: |||||||
 [DG]3 [FA] | [DB][DA] [Ec]>[DB] | [CA]4- | [CA]4 | [Ec]3 [Ee] | [Fd][Ec] [DB][CA] | [DF] [FA]3- | %35
w: |||||||
 [FA]4 | [=DB]3 [Dc] | [=DB][DA] [DG]>[DF] | [DE]4- | [DE]4 | [CA]3 [DB] | [Ec][CE] [EA][EG] | %42
w: |||||||
 [DG] [DF]3- | [DF]4 | [DG]3 [FA] | [DB][DA] [Ec]>[DB] | [CA]4- | [CA]4 |] %48
w: ||||||
V:2
 x4 | x4 | x4 | x4 | x4 | x4 | x4 | z2 z z/ z/4 E/4 | x4 | x4 | x4 | x4 | x4 | x4 | x4 | x4 | x4 | %17
 x4 | x4 | x4 | x4 | x4 | x4 | x4 | x4 | x4 | x4 | x4 | x4 | x4 | x4 | x4 | x4 | x4 | x4 | x4 | %36
 x4 | x4 | x4 | x4 | x4 | x4 | x4 | x4 | x4 | x4 | x4 | x4 |] %48
V:3
 [A,,E,]3 [A,,E,] | [A,,A,][A,,A,] [C,A,][C,A,] | [D,A,] [D,A,]3- | [D,A,]4 | [E,G,]3 [F,A,] | %5
w: 1.~Just~ be|fore~ His~ tri al,~|Je sus~||en tered~|
 [E,G,][F,A,] [E,G,]>[E,G,] | [A,,A,]4- | [A,,A,]4 | [A,,E,]3 [A,,E,] | %9
w: dark~ Geth sem a|ne;~||Leav ing~|
 [A,,A,][A,,A,] [C,A,][C,A,] | [D,A,] [D,A,]3- | [D,A,]4 | [E,G,]3 [F,A,] | %13
w: eight~ out side,~ took~|Pe ter~||and~ two~|
 [E,G,][F,A,] [E,G,]>[E,G,] | [A,,E,]4- | [A,,E,]4 | [A,,A,]3 [A,,C] | %17
w: sons~ of~ Zeb e|dee.~||Oh,~ the~|
 [A,,B,][A,,A,] [A,,A,][C,A,] | [D,A,] [D,A,]3- | [D,A,]4 | [B,,A,]3 [B,,A,] | %21
w: an guish~ in~ the~|gar den,~||as~ a|
 [B,,B,][F,B,] [B,,B,]>[B,,A,] | [E,B,]4- | [E,B,]4 | [A,,A,]3 [A,,A,] | %25
w: gain~ He~ left~ the~|three;~||And~ He~|
 [A,,A,][A,,A,] [C,A,][C,A,] | [D,A,] [D,A,]3- | [D,A,]4 | [E,,G,]3 [E,,F,] | %29
w: went~ a~ lit tle~|far ther,~||all~ the~|
 [E,,G,][F,,A,] [E,,G,]>[E,,G,] | [A,,E,]4- | [A,,E,]4 | [A,,A,]3 [A,,C] | %33
w: way~ to~ Cal va|ry!~||Oh,~ the~|
 [A,,B,][A,,A,] [A,,A,][C,A,] | [D,A,] [D,A,]3- | [D,A,]4 | [B,,A,]3 [B,,A,] | %37
w: an guish~ in~ the~|gar den,~||as~ a|
 [B,,B,][F,B,] [B,,B,]>[B,,A,] | [E,B,]4- | [E,B,]4 | [A,,A,]3 [A,,A,] | %41
w: gain~ He~ left~ the~|three;~||And~ He~|
 [A,,A,][A,,A,] [C,A,][C,A,] | [D,A,] [D,A,]3- | [D,A,]4 | [E,,G,]3 [E,,F,] | %45
w: went~ a~ lit tle~|far ther,~||all~ the~|
 [E,,G,][F,,A,] [E,,G,]>[E,,G,] | [A,,E,]4- | [A,,E,]4 |] %48
w: way~ to~ Cal va|ry!~||

